gtk-icons/Papirus-GTK/32x32/apps/cuttlefish.svg

<?xml version="1.0" encoding="UTF-8" standalone="no"?>
<!-- Created with Inkscape (http://www.inkscape.org/) -->

<svg
   xmlns:dc="http://purl.org/dc/elements/1.1/"
   xmlns:cc="http://creativecommons.org/ns#"
   xmlns:rdf="http://www.w3.org/1999/02/22-rdf-syntax-ns#"
   xmlns:svg="http://www.w3.org/2000/svg"
   xmlns="http://www.w3.org/2000/svg"
   xmlns:sodipodi="http://sodipodi.sourceforge.net/DTD/sodipodi-0.dtd"
   xmlns:inkscape="http://www.inkscape.org/namespaces/inkscape"
   width="32"
   height="32"
   id="svg5453"
   version="1.1"
   inkscape:version="0.91 r"
   sodipodi:docname="cuttlefish.svg">
  <defs
     id="defs5455" />
  <sodipodi:namedview
     id="base"
     pagecolor="#ffffff"
     bordercolor="#666666"
     borderopacity="1.0"
     inkscape:pageopacity="0"
     inkscape:pageshadow="2"
     inkscape:zoom="1"
     inkscape:cx="19.54536"
     inkscape:cy="16.785718"
     inkscape:document-units="px"
     inkscape:current-layer="layer1"
     showgrid="false"
     fit-margin-top="0"
     fit-margin-left="0"
     fit-margin-right="0"
     fit-margin-bottom="0"
     inkscape:window-width="1600"
     inkscape:window-height="846"
     inkscape:window-x="-5"
     inkscape:window-y="28"
     inkscape:window-maximized="1"
     inkscape:showpageshadow="false"
     borderlayer="true"
     showguides="false"
     inkscape:snap-bbox="true"
     inkscape:bbox-paths="true"
     inkscape:bbox-nodes="true"
     inkscape:snap-global="true"
     inkscape:object-nodes="true"
     inkscape:snap-bbox-edge-midpoints="true"
     inkscape:guide-bbox="true">
    <inkscape:grid
       type="xygrid"
       id="grid4063" />
    <sodipodi:guide
       position="4,8"
       orientation="28,0"
       id="guide4167" />
    <sodipodi:guide
       position="25,4"
       orientation="0,14"
       id="guide4183" />
    <sodipodi:guide
       position="28,44"
       orientation="0,1"
       id="guide4216" />
    <sodipodi:guide
       position="44,14"
       orientation="1,0"
       id="guide4253" />
  </sodipodi:namedview>
  <metadata
     id="metadata5458">
    <rdf:RDF>
      <cc:Work
         rdf:about="">
        <dc:format>image/svg+xml</dc:format>
        <dc:type
           rdf:resource="http://purl.org/dc/dcmitype/StillImage" />
        <dc:title></dc:title>
      </cc:Work>
    </rdf:RDF>
  </metadata>
  <g
     inkscape:label="Capa 1"
     inkscape:groupmode="layer"
     id="layer1"
     transform="translate(-384.57143,-515.798)">
    <path
       inkscape:connector-curvature="0"
       style="opacity:1;fill:#fecd38;fill-opacity:1;stroke:none"
       d="m 400.51127,517.798 c -5.36368,0 -11.43848,4.46244 -12.75784,9.40215 -0.62128,3.71811 0.1023,6.34178 1.97894,8.14297 0.0503,0.5259 0.15071,1.05183 0.10664,1.57773 -10e-4,0.0155 -0.004,0.031 -0.005,0.0465 -0.01,0.0989 -0.025,0.19777 -0.0479,0.29668 -0.01,0.0404 -0.0249,0.0813 -0.0369,0.12168 -0.022,0.0752 -0.0436,0.15036 -0.0752,0.22558 -0.0264,0.0625 -0.0646,0.12477 -0.0984,0.18731 -0.0314,0.0583 -0.0573,0.11666 -0.0957,0.175 -0.0789,0.11944 -0.17103,0.23876 -0.28301,0.3582 -0.4375,0.46666 -0.82031,0.75788 -1.14844,0.94746 -0.98437,0.56862 -1.47656,0.21875 -1.47656,0.91875 0,0.75833 1.7324,2.13247 3.3209,1.62012 0.24438,-0.0788 0.48569,-0.20144 0.7164,-0.37871 0.11536,-0.0886 0.22833,-0.19095 0.3377,-0.30762 0.20052,-0.21389 0.37463,-0.41379 0.5291,-0.60156 0.1528,-0.18408 0.28245,-0.35314 0.39922,-0.51407 0.0267,0.23449 0.0113,0.53136 -0.10254,0.98438 -0.45293,1.80307 -2.84774,1.65131 -1.70078,2.93125 0.88873,0.99175 3.54532,1.03006 5.01484,-0.2584 -0.58576,1.32818 -1.47621,2.12461 0.23516,2.12461 2.625,0 5.25,-1.86621 5.25,-4.66621 0,2.8 2.625,4.66621 5.25,4.66621 1.71137,0 0.82092,-0.79643 0.23516,-2.12461 1.46952,1.28846 4.12611,1.25015 5.01484,0.2584 1.14696,-1.27994 -1.24785,-1.12818 -1.70078,-2.93125 -0.11399,-0.45378 -0.12947,-0.75108 -0.10254,-0.98574 0.237,0.32667 0.53256,0.69485 0.92832,1.11699 1.75,1.86666 4.375,-4.6e-4 4.375,-0.93379 0,-0.93334 -0.875,4.5e-4 -2.625,-1.86621 -0.97667,-1.04178 -0.60331,-2.0836 -0.52773,-3.12539 2.02469,-1.83113 2.68575,-4.43514 1.85026,-8.00625 -1.86335,-5.29459 -7.39401,-9.40215 -12.75769,-9.40215 z"
       id="rect4130"
       sodipodi:nodetypes="ccccccccccccsccccccscscscsscssscccc" />
    <ellipse
       ry="2.5"
       rx="2"
       cy="527.29797"
       cx="395.57144"
       id="ellipse4306"
       style="opacity:0.2;fill:#000000;fill-opacity:1;stroke:none;stroke-width:1;stroke-linecap:round;stroke-linejoin:round;stroke-miterlimit:4;stroke-dasharray:none;stroke-opacity:1" />
    <ellipse
       style="opacity:1;fill:#ffffff;fill-opacity:1;stroke:none;stroke-width:1;stroke-linecap:round;stroke-linejoin:round;stroke-miterlimit:4;stroke-dasharray:none;stroke-opacity:1"
       id="path4219"
       cx="395.57144"
       cy="526.29797"
       rx="2"
       ry="2.5" />
    <ellipse
       style="opacity:0.2;fill:#000000;fill-opacity:1;stroke:none;stroke-width:1;stroke-linecap:round;stroke-linejoin:round;stroke-miterlimit:4;stroke-dasharray:none;stroke-opacity:1"
       id="ellipse4308"
       cx="405.57144"
       cy="527.29797"
       rx="2"
       ry="2.5" />
    <ellipse
       ry="1.5"
       rx="1"
       cy="526.29797"
       cx="396.57144"
       id="ellipse4221"
       style="opacity:1;fill:#3f3f3f;fill-opacity:1;stroke:none;stroke-width:1;stroke-linecap:round;stroke-linejoin:round;stroke-miterlimit:4;stroke-dasharray:none;stroke-opacity:1" />
    <ellipse
       style="opacity:1;fill:#3f3f3f;fill-opacity:1;stroke:none;stroke-width:1;stroke-linecap:round;stroke-linejoin:round;stroke-miterlimit:4;stroke-dasharray:none;stroke-opacity:1"
       id="ellipse4231"
       cx="406.52145"
       cy="526.198"
       rx="1.05"
       ry="1.4" />
    <ellipse
       ry="2.5"
       rx="2"
       cy="526.29797"
       cx="405.57144"
       id="ellipse4298"
       style="opacity:1;fill:#ffffff;fill-opacity:1;stroke:none;stroke-width:1;stroke-linecap:round;stroke-linejoin:round;stroke-miterlimit:4;stroke-dasharray:none;stroke-opacity:1" />
    <ellipse
       style="opacity:1;fill:#3f3f3f;fill-opacity:1;stroke:none;stroke-width:1;stroke-linecap:round;stroke-linejoin:round;stroke-miterlimit:4;stroke-dasharray:none;stroke-opacity:1"
       id="ellipse4300"
       cx="406.57144"
       cy="526.29797"
       rx="1"
       ry="1.5" />
    <path
       style="opacity:0.2;fill:#ffffff;fill-opacity:1;stroke:none"
       d="M 15.939453 2 C 10.575773 2 4.5010006 6.4626338 3.1816406 11.402344 C 3.0018477 12.478332 2.947466 13.452296 2.9882812 14.351562 C 3.0120794 13.734456 3.0661854 13.093296 3.1816406 12.402344 C 4.5010006 7.4626338 10.575773 3 15.939453 3 C 21.303133 3 26.833916 7.1077538 28.697266 12.402344 C 28.884139 13.201092 28.986769 13.94428 29.025391 14.648438 C 29.074535 13.66579 28.97576 12.592706 28.697266 11.402344 C 26.833916 6.1077538 21.303133 2 15.939453 2 z M 5.2441406 21.28125 C 5.235292 21.343055 5.2291563 21.404978 5.2148438 21.466797 C 5.2048438 21.507197 5.1897344 21.547511 5.1777344 21.587891 C 5.1557344 21.663091 5.1351156 21.73728 5.1035156 21.8125 C 5.0771156 21.875 5.0377063 21.93746 5.0039062 22 C 4.9725062 22.0583 4.9466031 22.117441 4.9082031 22.175781 C 4.8293031 22.295221 4.73698 22.413763 4.625 22.533203 C 4.1875 22.999863 3.8046925 23.290889 3.4765625 23.480469 C 2.4921925 24.049089 2 23.700391 2 24.400391 C 2 24.56128 2.0924262 24.750928 2.2304688 24.943359 C 2.4650146 24.834142 2.8777588 24.826367 3.4765625 24.480469 C 3.8046925 24.290889 4.1875 23.999863 4.625 23.533203 C 4.73698 23.413763 4.8293031 23.295221 4.9082031 23.175781 C 4.9466031 23.117441 4.9725062 23.0583 5.0039062 23 C 5.0377063 22.93746 5.0771156 22.875 5.1035156 22.8125 C 5.1351156 22.73728 5.1557344 22.663091 5.1777344 22.587891 C 5.1897344 22.547511 5.2048438 22.507197 5.2148438 22.466797 C 5.2377438 22.367887 5.2517188 22.268822 5.2617188 22.169922 C 5.2627187 22.154422 5.2665781 22.138547 5.2675781 22.123047 C 5.2910853 21.842529 5.2733167 21.561776 5.2441406 21.28125 z M 26.753906 21.314453 C 26.676015 22.05412 26.681575 22.793551 27.375 23.533203 C 28.608277 24.848694 29.397569 24.777823 29.761719 24.945312 C 29.900474 24.752312 30 24.561702 30 24.400391 C 30 23.467051 29.125 24.399863 27.375 22.533203 C 26.994075 22.126883 26.821866 21.720781 26.753906 21.314453 z M 24.697266 25.216797 C 24.670336 25.451457 24.684838 25.749345 24.798828 26.203125 C 25.073296 27.295754 26.054768 27.669544 26.535156 28.080078 C 27.498752 26.929385 25.484348 26.963605 24.888672 25.462891 C 24.825763 25.381124 24.753124 25.293789 24.697266 25.216797 z M 7.3046875 25.21875 C 7.2490665 25.295406 7.1758569 25.381801 7.1132812 25.462891 C 6.5174189 26.964311 4.4984348 26.929892 5.4648438 28.082031 C 5.9445727 27.670904 6.9263669 27.297097 7.2011719 26.203125 C 7.3150119 25.750105 7.3313875 25.45324 7.3046875 25.21875 z M 10.515625 28.875 C 10.301852 29.062434 10.057652 29.213274 9.8027344 29.345703 C 9.7236146 29.59792 9.7656625 29.780798 10.003906 29.886719 C 10.154351 29.596772 10.345145 29.261555 10.515625 28.875 z M 21.486328 28.875 C 21.65686 29.261672 21.847584 29.596716 21.998047 29.886719 C 22.235876 29.780767 22.276335 29.59776 22.197266 29.345703 C 21.942348 29.213274 21.700101 29.062434 21.486328 28.875 z "
       transform="translate(384.57143,515.798)"
       id="path4310" />
    <path
       style="opacity:0.3;fill:#000000;fill-opacity:1;stroke:none"
       d="M 2.9882812 13.351562 C 2.8840182 16.055189 3.6322605 18.078455 5.1601562 19.544922 C 5.183626 19.790304 5.2186189 20.035861 5.2441406 20.28125 C 5.2494498 20.244167 5.2579688 20.207009 5.2617188 20.169922 C 5.2627187 20.154422 5.2665781 20.138547 5.2675781 20.123047 C 5.3116481 19.597147 5.2104562 19.070822 5.1601562 18.544922 C 3.8265992 17.26498 3.0885044 15.559739 2.9882812 13.351562 z M 29.025391 13.648438 C 28.9271 15.613751 28.197454 17.187446 26.847656 18.408203 C 26.801554 19.04367 26.647622 19.67898 26.753906 20.314453 C 26.785723 20.012319 26.825737 19.710334 26.847656 19.408203 C 28.419485 17.986641 29.159443 16.092485 29.025391 13.648438 z M 24.697266 23.216797 C 24.670336 23.451457 24.684838 23.749345 24.798828 24.203125 C 24.822243 24.296339 24.855634 24.379658 24.888672 24.462891 C 25.09268 24.728052 25.322516 25.011338 25.625 25.333984 C 27.375 27.200644 30 25.333721 30 24.400391 C 30 24.124803 29.914292 24.015488 29.761719 23.945312 C 29.097647 24.868995 27.072541 25.878022 25.625 24.333984 C 25.22924 23.911844 24.934266 23.543467 24.697266 23.216797 z M 7.3046875 23.21875 C 7.1879175 23.37968 7.0570969 23.548342 6.9042969 23.732422 C 6.7498269 23.920192 6.57552 24.120094 6.375 24.333984 C 6.26563 24.450654 6.1524694 24.552025 6.0371094 24.640625 C 5.8063994 24.817895 5.5666456 24.940731 5.3222656 25.019531 C 4.0707864 25.42318 2.7430702 24.657926 2.2304688 23.943359 C 2.079446 24.013684 2 24.126209 2 24.400391 C 2 25.158721 3.7337656 26.531881 5.3222656 26.019531 C 5.5666456 25.940731 5.8063994 25.817895 6.0371094 25.640625 C 6.1524694 25.552025 6.26563 25.450654 6.375 25.333984 C 6.57552 25.120094 6.7498269 24.920192 6.9042969 24.732422 C 6.9843137 24.636025 7.0444865 24.552039 7.1132812 24.462891 C 7.1463016 24.379688 7.1777662 24.296301 7.2011719 24.203125 C 7.3150119 23.750105 7.3313875 23.45324 7.3046875 23.21875 z M 16 24.333984 C 16 27.133984 13.375 29 10.75 29 C 10.385774 29 10.16045 28.956317 10.003906 28.886719 C 9.6374321 29.59301 9.5367091 30 10.75 30 C 13.375 30 16 28.133984 16 25.333984 C 16 28.133984 18.625 30 21.25 30 C 22.463141 30 22.364408 29.592847 21.998047 28.886719 C 21.841525 28.956448 21.614578 29 21.25 29 C 18.625 29 16 27.133984 16 24.333984 z M 10.515625 26.875 C 9.046105 28.16346 6.38873 28.126516 5.5 27.134766 C 5.4818678 27.114531 5.4812273 27.101564 5.4648438 27.082031 C 5.1538896 27.348519 5.0489318 27.6314 5.5 28.134766 C 6.2594453 28.982244 8.3052948 29.12362 9.8027344 28.345703 C 9.9158984 27.984961 10.244259 27.490308 10.515625 26.875 z M 21.486328 26.875 C 21.757694 27.490308 22.084102 27.984961 22.197266 28.345703 C 23.694705 29.12362 25.740555 28.982244 26.5 28.134766 C 26.951922 27.630447 26.847511 27.347012 26.535156 27.080078 C 26.518427 27.100055 26.518561 27.114053 26.5 27.134766 C 25.61127 28.126516 22.955848 28.16346 21.486328 26.875 z "
       transform="translate(384.57143,515.798)"
       id="path4315" />
  </g>
</svg>

<?xml version="1.0" encoding="UTF-8" standalone="no"?>
<!-- Created with Inkscape (http://www.inkscape.org/) -->
<svg id="svg5453" xmlns:rdf="http://www.w3.org/1999/02/22-rdf-syntax-ns#" xmlns="http://www.w3.org/2000/svg" height="32" width="32" version="1.1" xmlns:cc="http://creativecommons.org/ns#" xmlns:dc="http://purl.org/dc/elements/1.1/">
 <metadata id="metadata5458">
  <rdf:RDF>
   <cc:Work rdf:about="">
    <dc:format>image/svg+xml</dc:format>
    <dc:type rdf:resource="http://purl.org/dc/dcmitype/StillImage"/>
    <dc:title/>
   </cc:Work>
  </rdf:RDF>
 </metadata>
 <g id="layer1" transform="translate(-384.57 -515.8)">
  <path id="rect4130" d="m400.51 517.8c-5.3637 0-11.438 4.4624-12.758 9.4022-0.62128 3.7181 0.1023 6.3418 1.9789 8.143 0.0503 0.5259 0.15071 1.0518 0.10664 1.5777-0.001 0.0155-0.004 0.031-0.005 0.0465-0.01 0.0989-0.025 0.19777-0.0479 0.29668-0.01 0.0404-0.0249 0.0813-0.0369 0.12168-0.022 0.0752-0.0436 0.15036-0.0752 0.22558-0.0264 0.0625-0.0646 0.12477-0.0984 0.18731-0.0314 0.0583-0.0573 0.11666-0.0957 0.175-0.0789 0.11944-0.17103 0.23876-0.28301 0.3582-0.4375 0.46666-0.82031 0.75788-1.1484 0.94746-0.98437 0.56862-1.4766 0.21875-1.4766 0.91875 0 0.75833 1.7324 2.1325 3.3209 1.6201 0.24438-0.0788 0.48569-0.20144 0.7164-0.37871 0.11536-0.0886 0.22833-0.19095 0.3377-0.30762 0.20052-0.21389 0.37463-0.41379 0.5291-0.60156 0.1528-0.18408 0.28245-0.35314 0.39922-0.51407 0.0267 0.23449 0.0113 0.53136-0.10254 0.98438-0.45293 1.8031-2.8477 1.6513-1.7008 2.9312 0.88873 0.99175 3.5453 1.0301 5.0148-0.2584-0.58576 1.3282-1.4762 2.1246 0.23516 2.1246 2.625 0 5.25-1.8662 5.25-4.6662 0 2.8 2.625 4.6662 5.25 4.6662 1.7114 0 0.82092-0.79643 0.23516-2.1246 1.4695 1.2885 4.1261 1.2502 5.0148 0.2584 1.147-1.2799-1.2478-1.1282-1.7008-2.9312-0.11399-0.45378-0.12947-0.75108-0.10254-0.98574 0.237 0.32667 0.53256 0.69485 0.92832 1.117 1.75 1.8667 4.375-0.00046 4.375-0.93379 0-0.93334-0.875 0.00045-2.625-1.8662-0.97667-1.0418-0.60331-2.0836-0.52773-3.1254 2.0247-1.8311 2.6858-4.4351 1.8503-8.0062-1.8634-5.2946-7.394-9.4022-12.758-9.4022z" fill="#fecd38"/>
  <ellipse id="ellipse4306" opacity=".2" rx="2" ry="2.5" cy="527.3" cx="395.57"/>
  <ellipse id="path4219" rx="2" ry="2.5" cy="526.3" cx="395.57" fill="#fff"/>
  <ellipse id="ellipse4308" opacity=".2" rx="2" ry="2.5" cy="527.3" cx="405.57"/>
  <ellipse id="ellipse4221" rx="1" ry="1.5" cy="526.3" cx="396.57" fill="#3f3f3f"/>
  <ellipse id="ellipse4231" rx="1.05" ry="1.4" cy="526.2" cx="406.52" fill="#3f3f3f"/>
  <ellipse id="ellipse4298" rx="2" ry="2.5" cy="526.3" cx="405.57" fill="#fff"/>
  <ellipse id="ellipse4300" rx="1" ry="1.5" cy="526.3" cx="406.57" fill="#3f3f3f"/>
  <path id="path4310" opacity=".2" d="m15.939 2c-5.363 0-11.438 4.4626-12.757 9.402-0.1802 1.076-0.2345 2.05-0.1937 2.95 0.0238-0.618 0.0779-1.259 0.1933-1.95 1.3194-4.9394 7.3944-9.402 12.757-9.402 5.364 0 10.895 4.1078 12.758 9.402 0.187 0.799 0.29 1.542 0.328 2.246 0.05-0.982-0.049-2.055-0.328-3.246-1.863-5.2942-7.394-9.402-12.758-9.402zm-10.695 19.281c-0.0088 0.062-0.0149 0.124-0.0293 0.186-0.01 0.04-0.0251 0.081-0.0371 0.121-0.022 0.075-0.0426 0.149-0.0742 0.224-0.0264 0.063-0.0658 0.125-0.0996 0.188-0.0314 0.058-0.0573 0.117-0.0957 0.176-0.0789 0.119-0.1712 0.238-0.2832 0.357-0.4375 0.467-0.8203 0.758-1.1484 0.947-0.9844 0.569-1.4766 0.22-1.4766 0.92 0 0.161 0.0924 0.351 0.2305 0.543 0.2345-0.109 0.6473-0.117 1.2461-0.463 0.3281-0.189 0.7109-0.48 1.1484-0.947 0.112-0.119 0.2043-0.238 0.2832-0.357 0.0384-0.059 0.0643-0.118 0.0957-0.176 0.0338-0.063 0.0732-0.125 0.0996-0.188 0.0316-0.075 0.0522-0.149 0.0742-0.224 0.012-0.04 0.0271-0.081 0.0371-0.121 0.0229-0.099 0.0369-0.198 0.0469-0.297 0.001-0.016 0.0049-0.031 0.0059-0.047 0.0235-0.28 0.0057-0.561-0.0235-0.842zm21.51 0.033c-0.078 0.74-0.072 1.48 0.621 2.219 1.233 1.316 2.023 1.245 2.387 1.412 0.138-0.193 0.238-0.383 0.238-0.545 0-0.933-0.875 0-2.625-1.867-0.381-0.406-0.553-0.812-0.621-1.219zm-2.057 3.903c-0.027 0.234-0.012 0.532 0.102 0.986 0.274 1.093 1.256 1.467 1.736 1.877 0.964-1.151-1.051-1.116-1.646-2.617-0.063-0.082-0.136-0.169-0.192-0.246zm-17.392 0.002c-0.0556 0.076-0.1288 0.163-0.1914 0.244-0.5959 1.501-2.6149 1.467-1.6485 2.619 0.4798-0.411 1.4616-0.785 1.7364-1.879 0.1138-0.453 0.1302-0.75 0.1035-0.984zm3.2113 3.656c-0.214 0.187-0.458 0.338-0.7133 0.471-0.0791 0.252-0.037 0.435 0.2013 0.541 0.15-0.29 0.341-0.625 0.512-1.012zm10.97 0c0.171 0.387 0.362 0.722 0.512 1.012 0.238-0.106 0.278-0.289 0.199-0.541-0.255-0.133-0.497-0.284-0.711-0.471z" transform="translate(384.57 515.8)" fill="#fff"/>
  <path id="path4315" opacity=".3" d="m2.9883 13.352c-0.1043 2.703 0.644 4.726 2.1719 6.193 0.0234 0.245 0.0584 0.491 0.0839 0.736 0.0053-0.037 0.0139-0.074 0.0176-0.111 0.001-0.016 0.0049-0.031 0.0059-0.047 0.044-0.526-0.0571-1.052-0.1074-1.578-1.3336-1.28-2.0717-2.985-2.1719-5.193zm26.037 0.296c-0.098 1.966-0.828 3.539-2.177 4.76-0.046 0.636-0.2 1.271-0.094 1.906 0.032-0.302 0.072-0.604 0.094-0.906 1.571-1.421 2.311-3.316 2.177-5.76zm-4.328 9.569c-0.027 0.234-0.012 0.532 0.102 0.986 0.023 0.093 0.057 0.177 0.09 0.26 0.204 0.265 0.434 0.548 0.736 0.871 1.75 1.867 4.375 0 4.375-0.934 0-0.275-0.086-0.385-0.238-0.455-0.664 0.924-2.689 1.933-4.137 0.389-0.396-0.422-0.691-0.791-0.928-1.117zm-17.392 0.002c-0.1168 0.161-0.2476 0.329-0.4004 0.513-0.1545 0.188-0.3288 0.388-0.5293 0.602-0.1094 0.117-0.2225 0.218-0.3379 0.307-0.2307 0.177-0.4705 0.3-0.7148 0.379-1.2515 0.403-2.5792-0.362-3.0918-1.077-0.1511 0.071-0.2305 0.183-0.2305 0.457 0 0.759 1.7338 2.132 3.3223 1.62 0.2443-0.079 0.4841-0.202 0.7148-0.379 0.1154-0.089 0.2285-0.19 0.3379-0.307 0.2005-0.214 0.3748-0.414 0.5293-0.602 0.08-0.096 0.1402-0.18 0.209-0.269 0.033-0.083 0.0645-0.167 0.0879-0.26 0.1138-0.453 0.1302-0.75 0.1035-0.984zm8.6953 1.115c0 2.8-2.625 4.666-5.25 4.666-0.364 0-0.59-0.044-0.746-0.113-0.3666 0.706-0.4673 1.113 0.746 1.113 2.625 0 5.25-1.866 5.25-4.666 0 2.8 2.625 4.666 5.25 4.666 1.213 0 1.114-0.407 0.748-1.113-0.156 0.069-0.383 0.113-0.748 0.113-2.625 0-5.25-1.866-5.25-4.666zm-5.484 2.541c-1.4699 1.288-4.1273 1.252-5.016 0.26-0.0181-0.02-0.0188-0.033-0.0352-0.053-0.3109 0.267-0.4159 0.549 0.0352 1.053 0.7594 0.847 2.8053 0.989 4.3027 0.211 0.1132-0.361 0.4413-0.856 0.7133-1.471zm10.97 0c0.272 0.615 0.598 1.11 0.711 1.471 1.498 0.778 3.544 0.636 4.303-0.211 0.452-0.505 0.348-0.788 0.035-1.055-0.017 0.02-0.016 0.034-0.035 0.055-0.889 0.992-3.544 1.028-5.014-0.26z" transform="translate(384.57 515.8)"/>
 </g>
</svg>
